X: 225
T: Bert Jamieson's Set Tune No.2
B: australian dance tunes
M:4/4
L:1/8
Q: 1/4=100
K:G
V:1 
B3c|d2 d2 dedc|B2 B2 B2 A2|G4 D2 G2|B2 A2 A2 AB|!
c2 c2 cdcB|A2 A2 A2 G2|F2 A2 e2 d2|B4 B2c2|!
d2 d2 dedc|B2 B2 B2 A2|G2 B2 d2 g2|e4 d2 ed|!
d6 ef|gfgf e2 fg|agfe d2 d2|e2 f2 g4||!
|:g2 fe d2 e2|c2 d2 B2 c2|d2 ed c2 B2|A8|!
g2 fe d2 e2|c2 d2 B2 c2|d2 d2 e2 f2|g8:|!
% abcbook-tune_id 62a078508a12ee5ef72f7520


% abcbook-boost 0
% abcbook-tablature 
% abcbook-transpose 
% abcbook-lastupdated 1654683750410
% abcbook-soundfonts 
% abcbook-repeats 1


